X:1
T:Bondpolska fraa Overharde
R:polska
Z:from Bengt Jonnson '92 trip
M:3/4
L:1/8
K:C
| "C"G>E C>E G>c | "G"c>B B3 B | "F"B>A F>A c>A | "C"A>G G4 |
| "C"G>E C>E G>c | "dm"c/B/c/e/ d3 e | "G7"f>d B>g d>B | "C"c2 c4 :|
|: "C"g>e c>g e>c | "C"g>e c>a g>e | "G7"f>d B>g d>c | "G7"B>d f>a (3gfd |
|  "C"g>e c>g e>c | "C"g>e c>a g>e | "G7"f>d B>g d>B | "C"c2 c4 :|
